X:1
T:Coming 'Round the Mountain
M:4/4
L:1/4
K:C
 G A| c c c c| A G G A| c4-| c z c d| e e e e| g e d c| d4-| d z g f|\
 e e e e| d c c c| A c c c| d c B A| G G G G| e d c B| c4-| c z||
